humanity-icon-theme/Humanity/apps/48/gnome-panel-force-quit.svg

<?xml version="1.0" encoding="UTF-8" standalone="no"?>
<!-- Created with Inkscape (http://www.inkscape.org/) -->

<svg
   xmlns:svg="http://www.w3.org/2000/svg"
   xmlns="http://www.w3.org/2000/svg"
   xmlns:xlink="http://www.w3.org/1999/xlink"
   version="1.1"
   width="48"
   height="48"
   id="svg3082">
  <defs
     id="defs3084">
    <linearGradient
       id="linearGradient3315">
      <stop
         id="stop3317"
         style="stop-color:white;stop-opacity:1"
         offset="0" />
      <stop
         id="stop3319"
         style="stop-color:white;stop-opacity:0"
         offset="1" />
    </linearGradient>
    <linearGradient
       id="linearGradient6457">
      <stop
         id="stop6459"
         style="stop-color:white;stop-opacity:0.94117647"
         offset="0" />
      <stop
         id="stop6461"
         style="stop-color:white;stop-opacity:0.70588237"
         offset="1" />
    </linearGradient>
    <linearGradient
       id="linearGradient5060">
      <stop
         id="stop5062"
         style="stop-color:black;stop-opacity:1"
         offset="0" />
      <stop
         id="stop5064"
         style="stop-color:black;stop-opacity:0"
         offset="1" />
    </linearGradient>
    <linearGradient
       id="linearGradient5048">
      <stop
         id="stop5050"
         style="stop-color:black;stop-opacity:0"
         offset="0" />
      <stop
         id="stop5056"
         style="stop-color:black;stop-opacity:1"
         offset="0.5" />
      <stop
         id="stop5052"
         style="stop-color:black;stop-opacity:0"
         offset="1" />
    </linearGradient>
    <linearGradient
       id="linearGradient2781">
      <stop
         id="stop2783"
         style="stop-color:#505050;stop-opacity:1"
         offset="0" />
      <stop
         id="stop6301"
         style="stop-color:#6e6e6e;stop-opacity:1"
         offset="0.13216467" />
      <stop
         id="stop2785"
         style="stop-color:#8c8c8c;stop-opacity:1"
         offset="1" />
    </linearGradient>
    <linearGradient
       id="linearGradient4168">
      <stop
         id="stop4170"
         style="stop-color:#f8cd70;stop-opacity:1"
         offset="0" />
      <stop
         id="stop4172"
         style="stop-color:#cc9110;stop-opacity:1"
         offset="1" />
    </linearGradient>
    <radialGradient
       cx="40.128311"
       cy="9.9661751"
       r="1.0606601"
       fx="40.128311"
       fy="9.9661751"
       id="radialGradient5537"
       xlink:href="#linearGradient4168"
       gradientUnits="userSpaceOnUse"
       gradientTransform="matrix(1.8725485,2.2095674e-6,-2.259713e-6,1.9133827,-42.642185,-9.569197)" />
    <radialGradient
       cx="40.128311"
       cy="9.9661751"
       r="1.0606601"
       fx="40.128311"
       fy="9.9661751"
       id="radialGradient5540"
       xlink:href="#linearGradient4168"
       gradientUnits="userSpaceOnUse"
       gradientTransform="matrix(1.8725485,2.2587334e-6,-2.2597133e-6,1.8717342,-38.642185,-9.154121)" />
    <radialGradient
       cx="40.128311"
       cy="9.9661751"
       r="1.0606601"
       fx="40.128311"
       fy="9.9661751"
       id="radialGradient5543"
       xlink:href="#linearGradient4168"
       gradientUnits="userSpaceOnUse"
       gradientTransform="matrix(1.8725485,-1.5970626e-7,1.5266511e-7,1.788437,-34.642209,-8.32387)" />
    <linearGradient
       x1="24"
       y1="13"
       x2="24"
       y2="40"
       id="linearGradient5546"
       xlink:href="#linearGradient6457"
       gradientUnits="userSpaceOnUse"
       gradientTransform="matrix(1.0526316,0,0,1.0740741,-1.2631579,-0.962963)" />
    <linearGradient
       x1="16.033964"
       y1="9.0734701"
       x2="15.934606"
       y2="38.926552"
       id="linearGradient5549"
       xlink:href="#linearGradient3315"
       gradientUnits="userSpaceOnUse"
       gradientTransform="matrix(1.3225792,0,0,1.2413775,-9.0644846,-5.2930795)" />
    <linearGradient
       x1="21.866402"
       y1="8.5763302"
       x2="21.780495"
       y2="39.923653"
       id="linearGradient5552"
       xlink:href="#linearGradient2781"
       gradientUnits="userSpaceOnUse"
       gradientTransform="matrix(1.3030281,0,0,1.2459013,-8.5757242,-5.713095)" />
    <radialGradient
       cx="605.71429"
       cy="486.64789"
       r="117.14286"
       fx="605.71429"
       fy="486.64789"
       id="radialGradient6367"
       xlink:href="#linearGradient5060"
       gradientUnits="userSpaceOnUse"
       gradientTransform="matrix(-0.06285449,0,0,0.02470587,46.705049,31.441651)" />
    <radialGradient
       cx="605.71429"
       cy="486.64789"
       r="117.14286"
       fx="605.71429"
       fy="486.64789"
       id="radialGradient6370"
       xlink:href="#linearGradient5060"
       gradientUnits="userSpaceOnUse"
       gradientTransform="matrix(0.06285449,0,0,0.02470587,1.2949601,31.441651)" />
    <linearGradient
       x1="302.85715"
       y1="366.64789"
       x2="302.85715"
       y2="609.50507"
       id="linearGradient6381"
       xlink:href="#linearGradient5048"
       gradientUnits="userSpaceOnUse"
       gradientTransform="matrix(0.06285449,0,0,0.02470587,1.2825904,31.441651)" />
  </defs>
  <g
     id="g5519">
    <g
       id="g5514">
      <path
         d="m 8.8125,40.5 0,6 19.5,0 -5.59375,-6 -13.90625,0 z m 19.40625,0 5.5625,6 5.40625,0 0,-6 -10.96875,0 z"
         id="rect4173"
         style="opacity:0.23613156;fill:url(#linearGradient6381);fill-opacity:1;fill-rule:nonzero;stroke:none;stroke-width:1;marker:none;visibility:visible;display:inline;overflow:visible" />
      <path
         d="m 39.174871,40.500211 c 0,0 0,5.999665 0,5.999665 3.236851,0.01129 7.82513,-1.344221 7.825128,-3.000219 0,-1.655998 -3.612082,-2.999446 -7.825128,-2.999446 z"
         id="path5058"
         style="opacity:0.23613156;fill:url(#radialGradient6370);fill-opacity:1;fill-rule:nonzero;stroke:none;stroke-width:1;marker:none;visibility:visible;display:inline;overflow:visible" />
      <path
         d="m 8.82513,40.500211 c 0,0 0,5.999665 0,5.999665 C 5.5882784,46.51117 1,45.155655 1,43.499657 1,41.843659 4.6120815,40.500211 8.82513,40.500211 z"
         id="path5018"
         style="opacity:0.23613156;fill:url(#radialGradient6367);fill-opacity:1;fill-rule:nonzero;stroke:none;stroke-width:1;marker:none;visibility:visible;display:inline;overflow:visible" />
    </g>
    <path
       d="m 4.5,5.5 c -1.108,0 -2,0.892 -2,2 l 0,34 c 0,1.108 0.8919998,2 2,2 l 21.03125,0 L 21.0625,38.71875 29.6875,30.375 11,15 23.6875,5.5 4.5,5.5 z M 30.3125,5.5 17,15 35.46875,30.28125 26.75,38.9375 31,43.5 l 12.5,0 c 1.108,0 2,-0.892 2,-2 l 0,-34 c 0,-1.108 -0.892,-2 -2,-2 l -13.1875,0 z"
       id="rect1887"
       style="fill:url(#linearGradient5552);fill-opacity:1;stroke:#565853;stroke-width:1.00002992;stroke-miterlimit:4;stroke-opacity:1;stroke-dasharray:none" />
    <path
       d="m 4.5,6.5 c -0.554,0 -1,0.446 -1,1 l 0,34 c 0,0.554 0.4460002,0.999998 1,1 l 20.09375,0 L 21.0625,38.71875 29.6875,30.375 11,15 22.34375,6.5 4.5,6.5 z M 28.90625,6.5 17,15 35.46875,30.28125 26.75,38.9375 30.0625,42.5 43.5,42.5 c 0.554,0 0.999998,-0.446002 1,-1 l 0,-34 c 0,-0.554 -0.446002,-1 -1,-1 l -14.59375,0 z"
       id="rect2779"
       style="opacity:0.2;fill:none;stroke:url(#linearGradient5549);stroke-width:1.00003481;stroke-miterlimit:4;stroke-opacity:1;stroke-dasharray:none" />
    <path
       d="M 5.0625,13 C 4.4793421,13 4,13.467463 4,14.0625 l 0,26.875 C 4,41.532537 4.4793423,42 5.0625,42 L 24.125,42 21.0625,38.71875 29.6875,30.375 11,15 13.65625,13 5.0625,13 z m 14.75,0 L 17,15 35.46875,30.28125 26.75,38.9375 29.59375,42 42.9375,42 C 43.520658,42 44,41.532537 44,40.9375 l 0,-26.875 C 44,13.467463 43.520658,13 42.9375,13 l -23.125,0 z"
       id="rect6287"
       style="fill:url(#linearGradient5546);fill-opacity:1;stroke:none" />
    <path
       d="m 42,9.5 c 3.59e-4,0.828322 -0.671319,1.5 -1.5,1.5 -0.828681,0 -1.500359,-0.671678 -1.5,-1.5 -3.59e-4,-0.8283216 0.671319,-1.4999996 1.5,-1.4999996 0.828681,0 1.500359,0.671678 1.5,1.4999996 l 0,0 z"
       id="path6289"
       style="fill:url(#radialGradient5543);fill-opacity:1;stroke:none" />
    <path
       d="m 38,9.4999997 c 3.59e-4,0.8283213 -0.671319,1.4999993 -1.5,1.4999993 -0.828681,0 -1.500359,-0.671678 -1.5,-1.4999993 C 34.999641,8.671678 35.671319,8 36.5,8 37.328681,8 38.000359,8.671678 38,9.4999997 l 0,0 z"
       id="path6291"
       style="fill:url(#radialGradient5540);fill-opacity:1;stroke:none" />
    <path
       d="m 34,9.4999997 c 3.59e-4,0.8283213 -0.671319,1.4999993 -1.5,1.4999993 -0.828681,0 -1.500359,-0.671678 -1.5,-1.4999993 C 30.999641,8.671678 31.671319,8 32.5,8 33.328681,8 34.000359,8.671678 34,9.4999997 l 0,0 z"
       id="path6293"
       style="fill:url(#radialGradient5537);fill-opacity:1;stroke:none" />
  </g>
</svg>

<?xml version="1.0" encoding="UTF-8" standalone="no"?>
<!-- Created with Inkscape (http://www.inkscape.org/) -->
<svg id="svg3082" xmlns="http://www.w3.org/2000/svg" height="48" width="48" version="1.1" xmlns:xlink="http://www.w3.org/1999/xlink">
 <defs id="defs3084">
  <linearGradient id="linearGradient5060">
   <stop id="stop5062" offset="0"/>
   <stop id="stop5064" style="stop-opacity:0" offset="1"/>
  </linearGradient>
  <linearGradient id="linearGradient4168">
   <stop id="stop4170" style="stop-color:#f8cd70" offset="0"/>
   <stop id="stop4172" style="stop-color:#cc9110" offset="1"/>
  </linearGradient>
  <radialGradient id="radialGradient5537" xlink:href="#linearGradient4168" gradientUnits="userSpaceOnUse" cy="9.9662" cx="40.128" gradientTransform="matrix(1.8725 .0000022096 -.0000022597 1.9134 -42.642 -9.5692)" r="1.0607"/>
  <radialGradient id="radialGradient5540" xlink:href="#linearGradient4168" gradientUnits="userSpaceOnUse" cy="9.9662" cx="40.128" gradientTransform="matrix(1.8725 .0000022587 -.0000022597 1.8717 -38.642 -9.1541)" r="1.0607"/>
  <radialGradient id="radialGradient5543" xlink:href="#linearGradient4168" gradientUnits="userSpaceOnUse" cy="9.9662" cx="40.128" gradientTransform="matrix(1.8725 -1.5971e-7 1.5267e-7 1.7884 -34.642 -8.3239)" r="1.0607"/>
  <linearGradient id="linearGradient5546" y2="40" gradientUnits="userSpaceOnUse" x2="24" gradientTransform="matrix(1.0526 0 0 1.0741 -1.2632 -.96296)" y1="13" x1="24">
   <stop id="stop6459" style="stop-color:#fff;stop-opacity:.94118" offset="0"/>
   <stop id="stop6461" style="stop-color:#fff;stop-opacity:.70588" offset="1"/>
  </linearGradient>
  <linearGradient id="linearGradient5549" y2="38.927" gradientUnits="userSpaceOnUse" x2="15.935" gradientTransform="matrix(1.3226 0 0 1.2414 -9.0645 -5.2931)" y1="9.0735" x1="16.034">
   <stop id="stop3317" style="stop-color:#fff" offset="0"/>
   <stop id="stop3319" style="stop-color:#fff;stop-opacity:0" offset="1"/>
  </linearGradient>
  <linearGradient id="linearGradient5552" y2="39.924" gradientUnits="userSpaceOnUse" x2="21.78" gradientTransform="matrix(1.303 0 0 1.2459 -8.5757 -5.7131)" y1="8.5763" x1="21.866">
   <stop id="stop2783" style="stop-color:#505050" offset="0"/>
   <stop id="stop6301" style="stop-color:#6e6e6e" offset=".13216"/>
   <stop id="stop2785" style="stop-color:#8c8c8c" offset="1"/>
  </linearGradient>
  <radialGradient id="radialGradient6367" xlink:href="#linearGradient5060" gradientUnits="userSpaceOnUse" cy="486.65" cx="605.71" gradientTransform="matrix(-.062854 0 0 .024706 46.705 31.442)" r="117.14"/>
  <radialGradient id="radialGradient6370" xlink:href="#linearGradient5060" gradientUnits="userSpaceOnUse" cy="486.65" cx="605.71" gradientTransform="matrix(.062854 0 0 .024706 1.295 31.442)" r="117.14"/>
  <linearGradient id="linearGradient6381" y2="609.51" gradientUnits="userSpaceOnUse" x2="302.86" gradientTransform="matrix(.062854 0 0 .024706 1.2826 31.442)" y1="366.65" x1="302.86">
   <stop id="stop5050" style="stop-opacity:0" offset="0"/>
   <stop id="stop5056" offset=".5"/>
   <stop id="stop5052" style="stop-opacity:0" offset="1"/>
  </linearGradient>
 </defs>
 <g id="g5519">
  <g id="g5514">
   <path id="rect4173" style="opacity:.23613;fill:url(#linearGradient6381)" d="m8.8125 40.5v6h19.5l-5.5938-6h-13.906zm19.406 0 5.5625 6h5.4062v-6h-10.969z"/>
   <path id="path5058" style="opacity:.23613;fill:url(#radialGradient6370)" d="m39.175 40.5v5.9997c3.2369 0.01129 7.8251-1.3442 7.8251-3.0002s-3.6121-2.9994-7.8251-2.9994z"/>
   <path id="path5018" style="opacity:.23613;fill:url(#radialGradient6367)" d="m8.8251 40.5v5.9997c-3.2368 0.011-7.8251-1.344-7.8251-3s3.6121-3 7.8251-3z"/>
  </g>
  <path id="rect1887" style="stroke:#565853;fill:url(#linearGradient5552)" d="m4.5 5.5c-1.108 0-2 0.892-2 2v34c0 1.108 0.892 2 2 2h21.031l-4.469-4.781 8.626-8.344-18.688-15.375 12.688-9.5h-19.188zm25.812 0-13.312 9.5 18.469 15.281-8.719 8.657 4.25 4.562h12.5c1.108 0 2-0.892 2-2v-34c0-1.108-0.892-2-2-2h-13.188z"/>
  <path id="rect2779" style="opacity:.2;stroke:url(#linearGradient5549);fill:none" d="m4.5 6.5c-0.554 0-1 0.446-1 1v34c0 0.554 0.446 1 1 1h20.094l-3.532-3.781 8.626-8.344-18.688-15.375 11.344-8.5h-17.844zm24.406 0-11.906 8.5 18.469 15.281-8.719 8.657 3.312 3.562h13.438c0.554 0 1-0.446 1-1v-34c0-0.554-0.446-1-1-1h-14.594z"/>
  <path id="rect6287" style="fill:url(#linearGradient5546)" d="m5.0625 13c-0.5832 0-1.0625 0.467-1.0625 1.062v26.875c0 0.596 0.4793 1.063 1.0625 1.063h19.062l-3.062-3.281 8.626-8.344-18.688-15.375 2.656-2h-8.5935zm14.75 0l-2.812 2 18.469 15.281-8.719 8.657 2.844 3.062h13.344c0.583 0 1.062-0.467 1.062-1.062v-26.875c0-0.596-0.479-1.063-1.062-1.063h-23.125z"/>
  <path id="path6289" style="fill:url(#radialGradient5543)" d="m42 9.5c0.000359 0.82832-0.67132 1.5-1.5 1.5s-1.5004-0.67168-1.5-1.5c-0.000359-0.82832 0.67132-1.5 1.5-1.5s1.5004 0.67168 1.5 1.5z"/>
  <path id="path6291" style="fill:url(#radialGradient5540)" d="m38 9.5c0.000359 0.82832-0.67132 1.5-1.5 1.5s-1.5004-0.67168-1.5-1.5c0-0.8283 0.671-1.5 1.5-1.5s1.5 0.6717 1.5 1.5z"/>
  <path id="path6293" style="fill:url(#radialGradient5537)" d="m34 9.5c0.000359 0.82832-0.67132 1.5-1.5 1.5s-1.5004-0.67168-1.5-1.5c0-0.8283 0.671-1.5 1.5-1.5s1.5 0.6717 1.5 1.5z"/>
 </g>
</svg>
